X:117
T:Many a Wild Night
T:Many's the Wild Night
R:polka
S:Version 1: Matt Cranitch & Donal Murphy
S:Version 2: Jackie Daly & Edel Fox
F:https://www.youtube.com/watch?v=n91QryThu00
Z:id:hn-polka-117
M:2/4
L:1/8
K:D
Ad dB | AF FD | GB BA | F/G/A D>F |
Ad dB | AF FD | GB BA | D2 D>F :|
|: Ad fa | ge e>c | Ac e/f/g | fd d/e/d/B/ |
Ad fa | ge e>d | ce ba | d2 d>B :|
P:version 2
|: Ad dc/B/ | AF FE/F/ | GB BA | FD D>F |
Ad dc/B/ | AF FE/F/ | GE BA |1 D2 DF :|2 D2 D2 ||
|: dA/d/ fa | ge ed | cA/c/ eg | fd dA |
dA/d/ fa | ge ed | ce ba |1 d2 dA :|2 d2 dB ||

